lib/svgs/talkai.svg

<?xml version="1.0" encoding="UTF-8"?>
<svg width="16px" height="16px" viewBox="0 0 16 16" version="1.1" xmlns="http://www.w3.org/2000/svg" xmlns:xlink="http://www.w3.org/1999/xlink">
    <!-- Generator: sketchtool 51.3 (57544) - http://www.bohemiancoding.com/sketch -->
    <title>talkai</title>
    <desc>Created with sketchtool.</desc>
    <defs></defs>
    <g id="Icons" stroke="none" stroke-width="1" fill="none" fill-rule="evenodd">
        <g id="Deprecated" transform="translate(-128.000000, -200.000000)" fill="#000000">
            <g id="talkai" transform="translate(128.000000, 200.000000)">
                <path d="M8.84375,4.46875 C9.59375,4.53125 10.2916667,4.72395833 10.9375,5.046875 C11.5833333,5.36979167 12.1458333,5.78645833 12.625,6.296875 C13.1041667,6.80729167 13.4791667,7.40104167 13.75,8.078125 C14.0208333,8.75520833 14.15625,9.46875 14.15625,10.21875 L14.15625,14.40625 C14.15625,14.84375 14.0052083,15.21875 13.703125,15.53125 C13.4010417,15.84375 13.0208333,16 12.5625,16 L3.4375,16 C3,16 2.625,15.84375 2.3125,15.53125 C2,15.21875 1.84375,14.84375 1.84375,14.40625 L1.84375,10.21875 C1.84375,9.46875 1.97916667,8.76041667 2.25,8.09375 C2.52083333,7.42708333 2.890625,6.83854167 3.359375,6.328125 C3.828125,5.81770833 4.38541667,5.39583333 5.03125,5.0625 C5.67708333,4.72916667 6.36458333,4.53125 7.09375,4.46875 C6.96875,4.28125 6.90625,4.07291667 6.90625,3.84375 L6.90625,3.78125 C6.61458333,3.59375 6.375,3.34895833 6.1875,3.046875 C6,2.74479167 5.90625,2.40625 5.90625,2.03125 C5.90625,1.46875 6.109375,0.989583333 6.515625,0.59375 C6.921875,0.197916667 7.40625,0 7.96875,0 C8.53125,0 9.015625,0.197916667 9.421875,0.59375 C9.828125,0.989583333 10.03125,1.46875 10.03125,2.03125 C10.03125,2.40625 9.9375,2.74479167 9.75,3.046875 C9.5625,3.34895833 9.32291667,3.59375 9.03125,3.78125 L9.03125,3.84375 C9.03125,4.07291667 8.96875,4.28125 8.84375,4.46875 L8.84375,4.46875 Z M6.40625,9.15625 L4.125,9.15625 L4.125,11.4375 L6.40625,11.4375 L6.40625,9.15625 L6.40625,9.15625 Z M12.125,9.15625 L9.84375,9.15625 L9.84375,11.4375 L12.125,11.4375 L12.125,9.15625 L12.125,9.15625 Z" id="Shape"></path>
            </g>
        </g>
    </g>
</svg>

<svg xmlns="http://www.w3.org/2000/svg" viewBox="0 0 16 16">
    <path d="M8.844 4.469c.75.062 1.448.255 2.094.578a5.93 5.93 0 0 1 1.687 1.25 5.71 5.71 0 0 1 1.531 3.922v4.187c0 .438-.15.813-.453 1.125a1.52 1.52 0 0 1-1.14.469H3.437c-.437 0-.812-.156-1.124-.469a1.534 1.534 0 0 1-.47-1.125V10.22c0-.75.136-1.459.407-2.125a5.828 5.828 0 0 1 4.844-3.625 1.102 1.102 0 0 1-.188-.625V3.78a2.306 2.306 0 0 1-.718-.734 1.887 1.887 0 0 1-.282-1.016c0-.562.203-1.041.61-1.437A2.01 2.01 0 0 1 7.969 0a2.01 2.01 0 0 1 1.453.594c.406.396.61.875.61 1.437 0 .375-.095.714-.282 1.016a2.306 2.306 0 0 1-.719.734v.063c0 .229-.062.437-.187.625zM6.406 9.156H4.125v2.281h2.281v-2.28zm5.719 0H9.844v2.281h2.281v-2.28z"/>
</svg>
